X:1
Q:1/4=85
L:1/8
M:1/4
K:C clef=G2
V:1
%%MIDI program 52
B31/32B-|B31/16|A31/32G-|G31/32B-|
B31/32d-|d2-|d2-d31/32|z
L:1/8
M:1/4
K:C clef=G2
V:2
%%MIDI program 0
B15/16[G-B-]|[GB]7/4[G-]3/16|[G-A]15/16[G-]|[G][G-B-]|
[GB]7/8[G-]/8[d-G-]|[d-G-]2|[d-G-]2[dG]/4|z/4[d]7/16z3/8
L:1/8
M:1/4
K:C clef=F4
V:3
%%MIDI program 0
z[G,-D-]|[G,D]7/4[G,-]3/16|[G,-C]15/16[G,-B,-]|[G,B,]7/8[G,-]/8[G,-D-]|
[G,D]7/8[G,-]/8[B,-G,-]|[B,-G,-]2|[B,-G,-]2[B,G,]/4|z/4[B,]7/16z3/8
Q:1/4=343
Q:1/4=85
L:1/8
M:1/4
K:C clef=G2
V:1
%%MIDI program 52
e31/16|c31/16|d31/16|B31/16|
c31/16|B2-|B31/16|A31/16|
zB31/32|B2-|B31/32A31/32|G31/16|
B31/16|d31/16|d2-|d31/16|
L:1/8
M:1/4
K:C clef=G2
V:2
%%MIDI program 0
[e^GB]15/8|[Ec]15/8|[^Fd]15/8|[DB]15/8|
[Ec]15/8|[D-G-B-]2|[DGB]31/16|[D^FA]15/8|
zB15/16|[G-B-]2|[GB]7/8[G-]/8[G-A]15/16|[G-]2|
[GB]15/8|[d-G][d]7/8z/8|[d^F]15/8|[Gd]7/4|
L:1/8
M:1/4
K:C clef=F4
V:3
%%MIDI program 0
[EE,]15/8|A,15/8|[A,D,]15/8|G,15/8|
[G,C,]15/8|D,31/16|^C,31/16|D,15/8|
z2|[G,-D-]2[G,D]7/8|z7/8|[G,-]248/16[G,]31/64[G,-C]15/16[G,B,]15/8|
[G,D]15/8|[B,-G,][B,]7/8z/8|[CA,]15/8|[DB,]15/8|
Q:1/4=343
Q:1/4=85
L:1/8
M:1/4
K:C clef=G2
V:1
%%MIDI program 52
e31/16|e3/4d3/4c3/4||c48-c3/2-c/8B3/4A3/4G31/16|
^F31/16|A2-|A31/16|
L:1/8
M:1/4
K:C clef=G2
V:2
%%MIDI program 0
[e^G]15/8|[ce]3/4[Bd]3/4[Ac]3/4||c48-c3/2-c/8B3/4A3/4[DG]15/8|
[^FD]7/4|[D-A-]2|[DA]31/16|[D]62/16
L:1/8
M:1/4
K:C clef=F4
V:3
%%MIDI program 0
[B,E,]15/8|[C,A,]15/8|[C,-E]3/4[C,-D]3/4[C-C,]15/32[C]3/16|[D,B,]15/8|
[D,A,]15/8|[C-D,-]2|[CD,]7/4(5:4[C]/4|
Q:1/4=43
L:1/8
M:1/4
K:C clef=G2
V:1
%%MIDI program 52
G31/16
L:1/8
M:1/4
K:C clef=G2
V:2
%%MIDI program 0
G15/8
L:1/8
M:1/4
K:C clef=F4
V:3
%%MIDI program 0
[B,G,]15/8
Q:1/4=85
L:1/8
M:1/4
K:C clef=G2
V:1
%%MIDI program 52
z2|A31/16|Az/2B31/64|c31/16|
d31/16|e31/16|d31/16|c31/16|
B31/16|A31/16|B31/16|B(3:2z/2A3/4-|
AGz3/8|A31/16|AG31/64^F31/64|^F31/16|
z2||A64-A4-A31/32Az/2B31/64|c31/16|
d31/16|e31/16|d31/16|c31/16|
B31/16|A31/16|G31/16|G(3:2z/2^F3/4-|
^FEz3/8|B31/16|B2-|B2|
zB31/32|B31/16|BA31/32|G31/16|
B31/16|d31/16|d2-|d2|
L:1/8
M:1/4
K:C clef=G2
V:2
%%MIDI program 0
z2|[^FA]15/8|[^FA]z/2[GB]15/32|[Ac]15/8|
[Bd]15/8|[ce]15/8|[Bd]15/8|[^Fc]15/8|
[GB]15/8|[GA]15/8|[BG]7/4|[E-B](3:2[E-]/2[E-A-]3/4|
[EA][G-E][G]/4|[A^F]15/8|[^C-A]7/8[^C-]/8[^C-G]15/32[^F-^C]3/8|[^FD]15/8|
z2|[^FA]15/8|[^FA]z/2[GB]15/32|[Ac]15/8|
[Bd]15/8|[ce]15/8|[Bd]15/8|[Dc]15/8|
[BD]7/4|[CA]15/8|[GC]7/4|[^C-G](3:2[^C-]/2[^C-^F-]3/4|
[^C^F][E-^C][E]/4|[BE]31/16|[BE]2|[B^D]15/8|
zB15/16|[GB]31/16|[GB]7/8[G-]/8[G-A]15/16|[G]31/16|
[GB]15/8|[dG]31/16|[d-G-]2|[dG][d]3/4(5:3z/2|
L:1/8
M:1/4
K:C clef=F4
V:3
%%MIDI program 0
z2|[D,D]15/8|[D,-C][D,-]/2[D,-B,]15/32|[D,A,]15/8|
[D,G,]15/8|[D,^F,]15/8|[D,G,]15/8|[D,A,]15/8|
[D,B,]15/8|[D,C]31/16|[D,C]7/4(5:4[D,-]/4|[D,^C]31/16|
[D,^C]7/4[D,-]/4|[D,D]15/8|[D,A,]15/8|[A,-D,,-D,]31/64[A,D,,]z/2|
z2|[D,D]15/8|[D,-C][D,-]/2[D,-B,]15/32|[D,A,]15/8|
[D,G,]15/8|[D,^F,]15/8|[G,-D,][G,]7/8|[A,^F,,]15/8|
[G,G,,]15/8|[^F,A,,]31/16|[^F,A,,]7/4(5:4[^F,-]/4|[^F,^A,,]31/16|
[^F,^A,,]7/4[^F,-]/4|[B,,^F,]31/16|[B,,-^F,-]2|[B,,^F,][B,,]3/4z/4|
z2|[G,D]31/16|[G,D]7/8[G,-]/8[G,-C]15/16|[G,B,]15/8|
[G,D]15/8|[B,G,]31/16|[B,-G,-]2|[B,G,][B,]3/4(5:3z/2|
Q:1/4=343
Q:1/4=85
L:1/8
M:1/4
K:C clef=G2
V:1
%%MIDI program 52
e31/16|c31/16|d31/16|B31/16|
c31/16|B2-|B31/16|A31/16|
zB31/32|B2-|B31/32A31/32|G31/16|
B31/16|d31/16|d2-|d31/16|
L:1/8
M:1/4
K:C clef=G2
V:2
%%MIDI program 0
[e^GB]15/8|[EAc]15/8|[^Fd]15/8|[DB]15/8|
[Ec]15/8|[D-G-B-]2|[DGB]31/16|[D^FA]15/8|
zB15/16|[G-B-]2|[GB]7/8[G-]/8[G-A]15/16|[G-]2|
[GB]15/8|[d-G][d]7/8z/8|[d^F]15/8|[Gd]7/4|
L:1/8
M:1/4
K:C clef=F4
V:3
%%MIDI program 0
[EE,]15/8|A,15/8|[A,D,]15/8|G,15/8|
[G,C,]15/8|D,31/16|^C,31/16|D,15/8|
z2|[G,-D-]2|[G,D]7/8[G,-]/8[G,-C]15/16|[G,B,]15/8|
[G,D]15/8|[B,-G,][B,]7/8z/8|[CA,]15/8|[DB,]15/8|
Q:1/4=343
Q:1/4=85
L:1/8
M:1/4
K:C clef=G2
V:1
%%MIDI program 52
e31/16|e3/4d3/4c3/4||c128-c48-c60/8B3/4A3/4
L:1/8
M:1/4
K:C clef=G2
V:2
%%MIDI program 0
[e^G]15/8|[ce]3/4[Bd]3/4[Ac]3/4||c128-c48-c60/8B3/4A3/4
L:1/8
M:1/4
K:C clef=F4
V:3
%%MIDI program 0
[B,E,]15/8|[C,A,]15/8|[C,-E]3/4[C,-D]3/4[C-C,]15/32[C]3/16|
Q:1/4=85
L:1/8
M:1/4
K:C clef=G2
V:1
%%MIDI program 52
G31/16|
L:1/8
M:1/4
K:C clef=G2
V:2
%%MIDI program 0
[DG]15/8|[D]2
L:1/8
M:1/4
K:C clef=F4
V:3
%%MIDI program 0
[D,B,]15/8|[D,]2
Q:1/4=73
L:1/8
M:1/4
K:C clef=G2
V:1
%%MIDI program 52
^F31/16|
L:1/8
M:1/4
K:C clef=G2
V:2
%%MIDI program 0
^F15/8|
L:1/8
M:1/4
K:C clef=F4
V:3
%%MIDI program 0
A,15/8|
Q:1/4=60
L:1/8
M:1/4
K:C clef=G2
V:1
%%MIDI program 52
A2-|A31/16|
L:1/8
M:1/4
K:C clef=G2
V:2
%%MIDI program 0
[D-A-]2|[DA]31/16|[D]62/16
L:1/8
M:1/4
K:C clef=F4
V:3
%%MIDI program 0
[G,,-C-^F,-]2|[G,,C^F,]31/16|[G,,]30/8
Q:1/4=30
L:1/8
M:1/4
K:C clef=G2
V:1
%%MIDI program 52
G31/16
L:1/8
M:1/4
K:C clef=G2
V:2
%%MIDI program 0
G15/8
L:1/8
M:1/4
K:C clef=F4
V:3
%%MIDI program 0
[B,G,]15/8
Q:1/4=60
Q:1/4=112
L:1/8
M:1/4
K:C clef=G2
V:2
%%MIDI program 0
B15/16[dA]15/16|[A^F]15/16[A^F]15/16|[cA]15/16[BG]15/16|[A^F]15/16[BG]15/16|
[BG]15/16[dA]15/16|[A^F]15/16[A^F]15/16|[cA]15/16[BG]15/16|[A^F]15/16[BG]15/16|
[BG]15/16[dA]15/16|[A^F]15/16[A^F]15/16|[cA]15/16[G-B]15/16|[A-G]7/8[^F-B]15/16|
[B-^F]7/8
L:1/8
M:1/4
K:C clef=F4
V:3
%%MIDI program 0
z[D,-D-]|[D,D]7/8[D,-]/8[D,-D-]|[D,-D-]2|[D,-D-]2[D,D]3/4|
z3/4|[D,-]256[D,-]16[D,][D,D]31/16[D-D,-]|[D-D,-]2|[D-D,-]2[DD,]3/16|
z3/16|[D-]256[D-]16[D]3/4z3/8[A,D,]15/8[^D,-A,]7/8[^D,-]/8|[^F,-^D,]7/8[G,-E,-]|[G,E,]7/8[G,-]/8[D,-G,-]|
[D,G,]3/4[D,]/8
Q:1/4=112
L:1/8
M:1/4
K:C clef=G2
V:2
%%MIDI program 0
[E-A]15/16[E]31/32
L:1/8
M:1/4
K:C clef=F4
V:3
%%MIDI program 0
[C,-A,]15/16[C,]31/32
Q:1/4=108
L:1/8
M:1/4
K:C clef=G2
V:2
%%MIDI program 0
G15/16
L:1/8
M:1/4
K:C clef=F4
V:3
%%MIDI program 0
B,15/16
Q:1/4=104
L:1/8
M:1/4
K:C clef=F4
V:2
%%MIDI program 0
[^C-^F]15/16[^C]31/32
L:1/8
M:1/4
K:C clef=F4
V:3
%%MIDI program 0
[^F,^A,,]15/8|[^F,-]2|[^F,]3
Q:1/4=100
L:1/8
M:1/4
K:C clef=F4
V:2
%%MIDI program 0
E15/16
Q:1/4=48
L:1/8
M:1/4
K:C clef=G2
V:2
%%MIDI program 0
[B-E]31/32[B-]|[B]3/4
L:1/8
M:1/4
K:C clef=F4
V:3
%%MIDI program 0
B,,2-|B,,7/16
Q:1/4=97
Q:1/4=93
L:1/8
M:1/4
K:C clef=F4
V:2
%%MIDI program 0
^C31/32
Q:1/4=44
L:1/8
M:1/4
K:C clef=F4
V:2
%%MIDI program 0
^D15/16
Q:1/4=89
Q:1/4=85
L:1/8
M:1/4
K:C clef=G2
V:1
%%MIDI program 52
B31/32B-|B31/16|A31/32G-|G31/32B-|
B31/32d-|d2-|d2-d31/32|z
L:1/8
M:1/4
K:C clef=G2
V:2
%%MIDI program 0
B15/16[G-B-]|[GB]7/4[G-]3/16||[G-A-]224[G-A-]8[G-A-]3/2[GA]7/32[G-]2[G-B-]|
[GB]7/8[G-]/8[d-G-]|[d-G-]2|[d-G-]2[dG]/4|z/4|
[d-]224[d-]8[d]z3/8
L:1/8
M:1/4
K:C clef=F4
V:3
%%MIDI program 0
z[G,-D-]|[G,D]7/4[G,-]3/16||[G,-C-]224[G,-C-]8[G,-C-]3/2[G,C]7/32[G,B,]15/8[G,-D-]|
[G,D]7/8[G,-]/8[B,-G,-]|[B,-G,-]2|[B,-G,-]2[B,G,]/4|z/4|
[B,-]224[B,-]8[B,]z3/8
Q:1/4=343
Q:1/4=85
L:1/8
M:1/4
K:C clef=G2
V:1
%%MIDI program 52
e31/16|c31/16|d31/16|B31/16|
c31/16|B2-|B31/16|A31/16|
zB31/32|B2-|B31/32A31/32|G31/16|
B31/16|d31/16|d2-|d31/16|
L:1/8
M:1/4
K:C clef=G2
V:2
%%MIDI program 0
[e^GB]15/8|[Ec]15/8|[^Fd]15/8|[DB]15/8|
[Ec]15/8|[D-G-B-]2|[DGB]31/16|[D^FA]15/8|
zB15/16|[G-B-]2|[GB]7/8[G-]/8[G-A]15/16|[G-]2|
[GB]15/8|[d-G][d]7/8z/8|[d^F]15/8|[Gd]7/4|
L:1/8
M:1/4
K:C clef=F4
V:3
%%MIDI program 0
[EE,]15/8|A,15/8|[A,D,]15/8|G,15/8|
[G,C,]15/8|D,31/16|^C,31/16|D,15/8|
z2|[G,-D-]2|[G,D]7/8[G,-]/8[G,-C]15/16|[G,B,]15/8|
[G,D]15/8|[B,-G,][B,]7/8z/8|[CA,]15/8|[DB,]15/8|
Q:1/4=343
Q:1/4=85
L:1/8
M:1/4
K:C clef=G2
V:1
%%MIDI program 52
e31/16|e3/4d3/4c3/4||c256-c28-c7/16B3/4A3/4G31/16|
^F31/16|A2-|A31/16|
L:1/8
M:1/4
K:C clef=G2
V:2
%%MIDI program 0
[e^G]15/8|[ce]3/4[Bd]3/4[Ac]3/4||c256-c28-c7/16B3/4A3/4[DG]15/8|
[^FD]7/4|[D-A-]2|[DA]31/16|[D]62/16
L:1/8
M:1/4
K:C clef=F4
V:3
%%MIDI program 0
[B,E,]15/8|[C,A,]15/8|[C,-E]3/4[C,-D]3/4[C-C,]15/32[C]3/16|[D,B,]15/8|
[D,A,]15/8|[C-D,-]2|[CD,]7/4(5:4[C]/4|
Q:1/4=43
L:1/8
M:1/4
K:C clef=G2
V:1
%%MIDI program 52
G31/16
L:1/8
M:1/4
K:C clef=G2
V:2
%%MIDI program 0
G15/8
L:1/8
M:1/4
K:C clef=F4
V:3
%%MIDI program 0
[B,G,]15/8
Q:1/4=85


